X:1
T:Here and There -- Hornpipe
R:hornpipe
C:J. A. Brown
B:Cole's 1000 Fiddle Tunes
Z:Bob Puckette <bpuckette:msn.com> 2003-3-8
M:2/4
L:1/16
K:A
uE2|AEAc BGBd|cAcd eaec|dcBd cBAc|BAGA BGEG|
AEAc BGBd|cAcd eaec|dcBd cBAc|BAGB A2:|
|:vcd|ecAc ecag|{g}fefg .f2(Bc)|dBGB dBgf|{f}e^def .e2.E2|
AEAc BGBd|cAcd eaec|dcBd cBAc|BAGB A2:|
